X:324
T: Retreat (The)
N: O'Farrell's Pocket Companion v.4 (Sky ed. p.143)
M: 2/4
R: march
L: 1/8
Q: 180
K: D
A| d2 {f}ed/e/| fdd>f| gfe>d| c/d/e/c/ AA| dd ed/e/|
fddf/g/| a>bag| fdd :|
P:2
f| a/b/a/f/ d/f/a/f/| bgg2| g/f/e/d/ c/d/e/c/| d/f/a/b/ a/g/f/e/|
dd ed/e/| fd d/e/f/g/| a2 a/b/a/g/| fdd :|
P:3
A| dAeA| fa/f/ dd| B/d/B/d/ g/f/e/d/| c/d/e/c/ A/B/A/G/|
FdGB | AdBb| ad c/d/e/g/| fdd :|
P:4
f| a/b/a/f/ d/f/a/f/| g/b/g/b/ g/b/g/b/| g/f/e/d/ c/d/e/c/|\
d/f/a/b/ a/g/f/e/|
d/f/d/f/ e/g/e/g/| f/a/f/a/ d/e/f/g/| a>bag| fdd :|
